svg/azure-vm-scaleset.svg

<?xml version="1.0" encoding="UTF-8"?>
<svg xmlns="http://www.w3.org/2000/svg" xmlns:xlink="http://www.w3.org/1999/xlink" width="32" height="32" viewBox="0 0 32 32">
<defs>
<linearGradient id="linear-pattern-0" gradientUnits="userSpaceOnUse" x1="12.74" y1="15.28" x2="12.74" y2="8.52" gradientTransform="matrix(1.777778, 0.00266842, -0.00266842, 1.777778, 0, 0)">
<stop offset="0" stop-color="rgb(0%, 47.058824%, 83.137255%)" stop-opacity="1"/>
<stop offset="0.82" stop-color="rgb(36.862745%, 62.745098%, 93.72549%)" stop-opacity="1"/>
</linearGradient>
<linearGradient id="linear-pattern-1" gradientUnits="userSpaceOnUse" x1="12.74" y1="17.889999" x2="12.74" y2="15.28" gradientTransform="matrix(1.777778, 0.00266842, -0.00266842, 1.777778, 0, 0)">
<stop offset="0.15" stop-color="rgb(80%, 80%, 80%)" stop-opacity="1"/>
<stop offset="1" stop-color="rgb(43.921569%, 43.921569%, 43.921569%)" stop-opacity="1"/>
</linearGradient>
</defs>
<path fill-rule="nonzero" fill="rgb(0%, 35.686275%, 63.137255%)" fill-opacity="1" d="M 2.007812 1.582031 L 18.773438 1.582031 C 19.105469 1.582031 19.378906 1.851562 19.378906 2.1875 L 19.378906 12.976562 C 19.378906 13.3125 19.105469 13.582031 18.773438 13.582031 L 2.007812 13.582031 C 1.675781 13.582031 1.40625 13.308594 1.40625 12.976562 L 1.40625 2.1875 C 1.40625 1.851562 1.675781 1.582031 2.007812 1.582031 M 2.007812 1.582031 "/>
<path fill-rule="nonzero" fill="rgb(31.372549%, 90.196078%, 100%)" fill-opacity="1" d="M 13.386719 5.832031 L 13.386719 9.332031 L 10.398438 11.074219 L 10.398438 7.589844 Z M 13.386719 5.832031 "/>
<path fill-rule="nonzero" fill="rgb(76.470588%, 94.509804%, 100%)" fill-opacity="1" d="M 13.386719 5.832031 L 10.398438 7.589844 L 7.394531 5.832031 L 10.398438 4.070312 Z M 13.386719 5.832031 "/>
<path fill-rule="nonzero" fill="rgb(61.176471%, 92.156863%, 100%)" fill-opacity="1" d="M 10.398438 7.589844 L 10.398438 11.074219 L 7.394531 9.332031 L 7.394531 5.832031 Z M 10.398438 7.589844 "/>
<path fill-rule="nonzero" fill="rgb(0%, 47.058824%, 83.137255%)" fill-opacity="1" d="M 9.066406 8.460938 L 25.832031 8.460938 C 26.164062 8.460938 26.4375 8.734375 26.4375 9.066406 L 26.4375 19.859375 C 26.433594 20.191406 26.164062 20.460938 25.832031 20.460938 L 9.066406 20.460938 C 8.734375 20.460938 8.460938 20.191406 8.460938 19.859375 L 8.460938 9.066406 C 8.460938 8.734375 8.734375 8.460938 9.066406 8.460938 M 9.066406 8.460938 "/>
<path fill-rule="nonzero" fill="rgb(31.372549%, 90.196078%, 100%)" fill-opacity="1" d="M 20.445312 12.730469 L 20.445312 16.214844 L 17.457031 17.972656 L 17.457031 14.472656 Z M 20.445312 12.730469 "/>
<path fill-rule="nonzero" fill="rgb(76.470588%, 94.509804%, 100%)" fill-opacity="1" d="M 20.445312 12.730469 L 17.457031 14.472656 L 14.453125 12.730469 L 17.457031 10.96875 Z M 20.445312 12.730469 "/>
<path fill-rule="nonzero" fill="rgb(61.176471%, 92.156863%, 100%)" fill-opacity="1" d="M 17.457031 14.472656 L 17.457031 17.972656 L 14.453125 16.214844 L 14.453125 12.730469 Z M 17.457031 14.472656 "/>
<path fill-rule="nonzero" fill="url(#linear-pattern-0)" d="M 14.257812 15.148438 L 31.023438 15.148438 C 31.355469 15.148438 31.625 15.417969 31.625 15.75 L 31.625 26.542969 C 31.625 26.875 31.355469 27.148438 31.023438 27.148438 L 14.257812 27.148438 C 13.925781 27.144531 13.65625 26.875 13.652344 26.542969 L 13.652344 15.75 C 13.652344 15.417969 13.925781 15.148438 14.257812 15.148438 M 14.257812 15.148438 "/>
<path fill-rule="nonzero" fill="rgb(31.372549%, 90.196078%, 100%)" fill-opacity="1" d="M 25.636719 19.414062 L 25.636719 22.898438 L 22.648438 24.65625 L 22.648438 21.15625 Z M 25.636719 19.414062 "/>
<path fill-rule="nonzero" fill="rgb(76.470588%, 94.509804%, 100%)" fill-opacity="1" d="M 25.636719 19.414062 L 22.648438 21.171875 L 19.644531 19.414062 L 22.648438 17.652344 Z M 25.636719 19.414062 "/>
<path fill-rule="nonzero" fill="rgb(61.176471%, 92.156863%, 100%)" fill-opacity="1" d="M 22.648438 21.171875 L 22.648438 24.65625 L 19.644531 22.898438 L 19.644531 19.414062 Z M 22.648438 21.171875 "/>
<path fill-rule="nonzero" fill="rgb(76.470588%, 94.509804%, 100%)" fill-opacity="1" d="M 19.644531 22.898438 L 22.648438 21.15625 L 22.648438 24.65625 Z M 19.644531 22.898438 "/>
<path fill-rule="nonzero" fill="rgb(61.176471%, 92.156863%, 100%)" fill-opacity="1" d="M 25.636719 22.898438 L 22.648438 21.15625 L 22.648438 24.65625 Z M 25.636719 22.898438 "/>
<path fill-rule="nonzero" fill="url(#linear-pattern-1)" d="M 26.238281 30.792969 C 24.460938 30.507812 24.460938 29.226562 24.460938 27.234375 L 20.90625 27.234375 C 20.90625 29.296875 20.90625 30.578125 19.128906 30.792969 C 18.625 30.871094 18.25 31.296875 18.238281 31.804688 L 27.128906 31.804688 C 27.117188 31.296875 26.742188 30.867188 26.238281 30.792969 "/>
</svg>

<svg role="img" viewBox="0 0 32 32" height="32" width="32" xmlns="http://www.w3.org/2000/svg"><defs><linearGradient gradientTransform="rotate(.086)scale(1.77778)" gradientUnits="userSpaceOnUse" id="330__328__212__210__463__461__107__105__102__100__467__465__96__94__70__68__22__20__460__458__azure-vm-scaleset_svg__svg/azure-vm-scaleset.svg205__svg/azure-vm-scaleset.svg201__azure-vm-scaleset-lp-0" x1="12.74" x2="12.74" y1="15.28" y2="8.52"><stop offset="0" stop-color="rgb(0%, 47.058824%, 83.137255%)"/><stop offset=".82" stop-color="rgb(36.862745%, 62.745098%, 93.72549%)"/></linearGradient><linearGradient gradientTransform="rotate(.086)scale(1.77778)" gradientUnits="userSpaceOnUse" id="331__329__213__211__464__462__108__106__103__101__468__466__97__95__71__69__23__21__461__459__azure-vm-scaleset_svg__svg/azure-vm-scaleset.svg207__svg/azure-vm-scaleset.svg203__azure-vm-scaleset-lp-1" x1="12.74" x2="12.74" y1="17.89" y2="15.28"><stop offset=".15" stop-color="rgb(80%, 80%, 80%)"/><stop offset="1" stop-color="rgb(43.921569%, 43.921569%, 43.921569%)"/></linearGradient></defs><path d="M2.008 1.582h16.765c.332 0 .606.27.606.605v10.79a.606.606 0 0 1-.606.605H2.008a.605.605 0 0 1-.602-.605V2.187c0-.335.27-.605.602-.605m0 0" fill="rgb(0%, 35.686275%, 63.137255%)"/><path d="M13.387 5.832v3.5l-2.989 1.742V7.59Zm0 0" fill="rgb(31.372549%, 90.196078%, 100%)"/><path d="M13.387 5.832 10.398 7.59 7.395 5.832l3.003-1.762Zm0 0" fill="rgb(76.470588%, 94.509804%, 100%)"/><path d="M10.398 7.59v3.484L7.395 9.332v-3.5Zm0 0" fill="rgb(61.176471%, 92.156863%, 100%)"/><path d="M9.066 8.46h16.766c.332 0 .605.274.605.606V19.86a.608.608 0 0 1-.605.602H9.066a.605.605 0 0 1-.605-.602V9.066c0-.332.273-.605.605-.605m0 0" fill="rgb(0%, 47.058824%, 83.137255%)"/><path d="M20.445 12.73v3.485l-2.988 1.758v-3.5Zm0 0" fill="rgb(31.372549%, 90.196078%, 100%)"/><path d="m20.445 12.73-2.988 1.743-3.004-1.743 3.004-1.761Zm0 0" fill="rgb(76.470588%, 94.509804%, 100%)"/><path d="M17.457 14.473v3.5l-3.004-1.758V12.73Zm0 0" fill="rgb(61.176471%, 92.156863%, 100%)"/><path d="M14.258 15.148h16.765c.332 0 .602.27.602.602v10.793c0 .332-.27.605-.602.605H14.258a.614.614 0 0 1-.606-.605V15.75c0-.332.274-.602.606-.602m0 0" fill="url(#330__328__212__210__463__461__107__105__102__100__467__465__96__94__70__68__22__20__460__458__azure-vm-scaleset_svg__svg/azure-vm-scaleset.svg205__svg/azure-vm-scaleset.svg201__azure-vm-scaleset-lp-0)"/><path d="M25.637 19.414v3.484l-2.989 1.758v-3.5Zm0 0" fill="rgb(31.372549%, 90.196078%, 100%)"/><path d="m25.637 19.414-2.989 1.758-3.003-1.758 3.003-1.762Zm0 0" fill="rgb(76.470588%, 94.509804%, 100%)"/><path d="M22.648 21.172v3.484l-3.003-1.758v-3.484Zm0 0" fill="rgb(61.176471%, 92.156863%, 100%)"/><path d="m19.645 22.898 3.003-1.742v3.5Zm0 0" fill="rgb(76.470588%, 94.509804%, 100%)"/><path d="m25.637 22.898-2.989-1.742v3.5Zm0 0" fill="rgb(61.176471%, 92.156863%, 100%)"/><path d="M26.238 30.793c-1.777-.285-1.777-1.566-1.777-3.559h-3.555c0 2.063 0 3.344-1.777 3.559a1.05 1.05 0 0 0-.89 1.012h8.89a1.046 1.046 0 0 0-.89-1.012" fill="url(#331__329__213__211__464__462__108__106__103__101__468__466__97__95__71__69__23__21__461__459__azure-vm-scaleset_svg__svg/azure-vm-scaleset.svg207__svg/azure-vm-scaleset.svg203__azure-vm-scaleset-lp-1)"/></svg>
